!!!COM: Schubert, Franz
!!!CNT: Deutscher
!!!TXO: Deutsch
!!!OTL: "Des Baches Wiegenlied"
!!!OPR: Die schoene Muellerin
!!!LYR: Mu2ller, Wilhelm
!!!OPS: Opus 25
!!!ONM: No. 20
!!!ODT: 1823/
!!NB: Vocal melody only encoded.
**kern	**silbe
*clefG2	*
*k[f#c#g#d#]	*
*M2/2	*
*MM[massig]	*
=4	=4
2r	.
4r	.
{8g#	{Gu-
8a	-te
=5	=5
4b	Ruh',
8g#	gu-
8a	-te
4b	Ruh',
8b	thu'
8ee	die
=6	=6
4.dd#	Au-
8a	-gen
4g#}	zu,}
{8g#	{gu-
8a	-te
=7	=7
4b	Ruh',
8g#	gu-
8a	-te
4b	Ruh;
8b	thu'
8ee	die
=8	=8
8dd#	Au-
8ff#	|
8dd#	-gen
8a	|
4g#}	zu!}
4r	.
=9	=9
{4g#	Wand'-
8a	-rer,
8b	du
8.b	mu2-
16cc#	|
8b	-der,
8b	du
=10	=10
4ee	bist
8dd#	zu
8cc#	|
4g#}	Haus.}
4r	.
=11	=11
2r	.
4r	.
{8cc#	{Die
8ddn	|
=12	=12
4ee	Treu'
8cc#	ist
8ddn	|
4.ee	heir,
8cc#	sollst
=13	=13
8ee	lie-
8ddn	|
8cc#	-gen
8b	bei
4cc#}	mir,}
{8cc#	{die
8ddn	|
=14	=14
4ee	Treu'
8cc#	ist
8ddn	|
4.ee	hier,
8cc#	sollst
=15	=15
8ee	lie-
8ddn	|
8cc#	-gen
8b	bei
4cc#}	mir,}
4r	.
=16	=16
2r	.
4r	.
{8b	{bis
8b	das
=17	=17
(4cc#	Meer
8b)	|
8b	will
(bq	trin-
4gg)	|
8ee	-ken
8b	die
=18	=18
(4cc#	Ba2ch-
8b)	|
8b	-lein
4g#}	aus,}
{8b	{bis
8b	das
=19	=19
(4ccn	Meer
8b)	|
8a	will
8g#	trink-
8ee	|
8b	-en
8b	die
=20	=20
4ff#	Ba2ch-
8ee	-lein
8dd#	|
2ee}	aus.}
=22	=22
2r	.
4r	.
8g#	Will
8a	|
*-	*-
